source/img/icon-projects.svg

<svg fill="none" height="24" viewBox="0 0 24 24" width="24" xmlns="http://www.w3.org/2000/svg"><path d="m16.122 4.12212c-1.4536-.0053-2.8859.40318-4.122 1.16711-1.2361-.76393-2.66844-1.17241-4.12202-1.16711-4.34482 0-7.87798 3.53316-7.87798 7.87798 0 4.3448 3.53316 7.878 7.87798 7.878 1.45358.0053 2.88592-.4032 4.12202-1.1671 1.2361.7639 2.6684 1.1724 4.122 1.1671 4.3448 0 7.878-3.5332 7.878-7.878 0-4.34482-3.5332-7.87798-7.878-7.87798zm-8.24402 14.70028c-3.76657 0-6.82228-3.0557-6.82228-6.817 0-3.76126 3.05571-6.82227 6.82228-6.82227 1.10876 0 2.20162.26525 3.17772.78515-3.33156 2.79575-3.76658 7.76122-.9708 11.09282.2971.3501.6207.6738.9708.9708-.9761.5199-2.06896.7905-3.17772.7905zm4.12202-1.3952c-2.99735-2.2759-3.58621-6.5518-1.3103-9.54911.3766-.49337.8169-.93369 1.3103-1.31035 2.9973 2.27587 3.5862 6.55176 1.3103 9.54906-.3766.4987-.8169.939-1.3103 1.3104zm4.122 1.3899c-1.1087 0-2.2016-.2653-3.1777-.7852 3.3316-2.7957 3.7666-7.7612.9708-11.0928-.2971-.35014-.6207-.67374-.9708-.97082.9814-.5199 2.069-.79046 3.1777-.78515 3.7666 0 6.817 3.0557 6.817 6.82227 0 3.7666-3.0504 6.817-6.817 6.8117z" fill="#2b2d3a"/></svg>

<svg width="24" height="24" viewBox="0 0 24 24" fill="none" xmlns="http://www.w3.org/2000/svg">
<path d="M16.122 4.12212C14.6684 4.11682 13.2361 4.5253 12 5.28923C10.7639 4.5253 9.33156 4.11682 7.87798 4.12212C3.53316 4.12212 0 7.65528 0 12.0001C0 16.3449 3.53316 19.8781 7.87798 19.8781C9.33156 19.8834 10.7639 19.4749 12 18.711C13.2361 19.4749 14.6684 19.8834 16.122 19.8781C20.4668 19.8781 24 16.3449 24 12.0001C24 7.65528 20.4668 4.12212 16.122 4.12212ZM7.87798 18.8224C4.11141 18.8224 1.0557 15.7667 1.0557 12.0054C1.0557 8.24414 4.11141 5.18313 7.87798 5.18313C8.98674 5.18313 10.0796 5.44838 11.0557 5.96828C7.72414 8.76403 7.28912 13.7295 10.0849 17.0611C10.382 17.4112 10.7056 17.7349 11.0557 18.0319C10.0796 18.5518 8.98674 18.8224 7.87798 18.8224ZM12 17.4272C9.00265 15.1513 8.41379 10.8754 10.6897 7.87809C11.0663 7.38472 11.5066 6.9444 12 6.56774C14.9973 8.84361 15.5862 13.1195 13.3103 16.1168C12.9337 16.6155 12.4934 17.0558 12 17.4272ZM16.122 18.8171C15.0133 18.8171 13.9204 18.5518 12.9443 18.0319C16.2759 15.2362 16.7109 10.2707 13.9151 6.9391C13.618 6.58896 13.2944 6.26536 12.9443 5.96828C13.9257 5.44838 15.0133 5.17782 16.122 5.18313C19.8886 5.18313 22.939 8.23883 22.939 12.0054C22.939 15.772 19.8886 18.8224 16.122 18.8171Z" fill="#2B2D3A"/>
</svg>
